X: 8362
T: Country Lass, The
R: waltz
M: 3/4
K: Dmajor
|:D2|D>D d2 (d/e/f)|(e>d) {d}c3 A|(B>A)(~F>E)F>A|B2d3D|
D>D (d3f)|e>d {d}c3 A|(~B>A)(F>E)F>A|B2 {Bc}d2:|
|:e2|(~c/B/A) (A3B)|A>FA3A|A>A B3A|(AB) d3F|
{F}G>F {F}(~E3D)|(g>f) {f}~(e3d/e/)|(f/e/d) {c}~(B3A)|(A>B) d2:|

